;FLAVOR:RepRap
;TIME:1060
;Generated with Cura_SteamEngine 2.3.0-BETA
; -- START GCODE --
M104 S210 ; Heat up extruder while leveling
M800 ; Custom GCODE to fire start print procedure
M109 S210 ; Makes sure the temperature is correct before printing
; -- end of START GCODE --
;LAYER_COUNT:20
;LAYER:0
M106 S255.000000
G1 F1500.000000 E-6.50000
G0 F1800.00000 X58.927 Y136.943 Z0.200
G0 X59.013 Y136.907
;TYPE:SKIRT
G1 F1500.000 E0.00000
G1 F1800.00000 X59.312 Y136.789 E0.00962
G1 X59.521 Y136.712 E0.01629
G1 X59.921 Y136.578 E0.02892
G1 X60.003 Y136.553 E0.03148
G1 X60.334 Y136.460 E0.04178
G1 X60.546 Y136.406 E0.04832
G1 X60.983 Y136.309 E0.06172
G1 X61.098 Y136.287 E0.06523
G1 X61.453 Y136.228 E0.07600
G1 X61.630 Y136.203 E0.08135
G1 X61.810 Y136.180 E0.08678
G1 X61.853 Y136.175 E0.08808
G1 X62.093 Y136.151 E0.09530
G1 X62.165 Y136.145 E0.09746
G1 X62.470 Y136.126 E0.10661
G1 X62.756 Y136.114 E0.11518
G1 X62.973 Y136.108 E0.12168
G1 X63.529 Y136.101 E0.13832
G1 X63.622 Y136.100 E0.14111
G1 X146.293 Y136.100 E2.61579
G1 X146.399 Y136.101 E2.61896
G1 X147.170 Y136.112 E2.64204
G1 X147.400 Y136.119 E2.64893
G1 X147.444 Y136.121 E2.65025
G1 X147.598 Y136.129 E2.65487
G1 X147.779 Y136.141 E2.66030
G1 X148.171 Y136.178 E2.67208
G1 X148.196 Y136.181 E2.67284
G1 X148.232 Y136.185 E2.67392
G1 X148.344 Y136.199 E2.67730
G1 X148.676 Y136.248 E2.68735
G1 X148.851 Y136.278 E2.69266
G1 X148.851 Y136.279 E2.69269
G1 X149.254 Y136.359 E2.70499
G1 X149.381 Y136.388 E2.70889
G1 X149.756 Y136.484 E2.72048
G1 X149.925 Y136.532 E2.72573
G1 X150.029 Y136.562 E2.72897
G1 X150.049 Y136.568 E2.72960
G1 X150.344 Y136.663 E2.73888
G1 X150.422 Y136.690 E2.74135
G1 X150.760 Y136.817 E2.75216
G1 X150.974 Y136.903 E2.75906
G1 X150.969 Y136.917 E2.75950
G1 X151.384 Y137.081 E2.77286
G1 X151.460 Y137.117 E2.77538
G1 X151.727 Y137.250 E2.78431
G1 X151.935 Y137.359 E2.79134
G1 X152.345 Y137.591 E2.80544
G1 X152.419 Y137.636 E2.80803
G1 X152.694 Y137.812 E2.81781
G1 X152.876 Y137.934 E2.82436
G1 X153.196 Y138.161 E2.83611
G1 X153.276 Y138.221 E2.83910
G1 X153.588 Y138.468 E2.85101
G1 X153.742 Y138.597 E2.85703
G1 X153.739 Y138.601 E2.85718
G1 X154.055 Y138.875 E2.86970
G1 X154.136 Y138.951 E2.87302
G1 X154.377 Y139.187 E2.88312
G1 X154.520 Y139.334 E2.88926
G1 X154.765 Y139.598 E2.90004
G1 X154.825 Y139.666 E2.90275
G1 X155.093 Y139.987 E2.91527
G1 X155.244 Y140.179 E2.92258
G1 X155.515 Y140.548 E2.93629
G1 X155.553 Y140.603 E2.93829
G1 X155.716 Y140.849 E2.94712
G1 X155.837 Y141.040 E2.95389
G1 X155.931 Y141.193 E2.95927
G1 X155.943 Y141.213 E2.95996
G1 X156.061 Y141.416 E2.96699
G1 X156.090 Y141.468 E2.96877
G1 X156.266 Y141.803 E2.98010
G1 X156.364 Y142.002 E2.98674
G1 X156.530 Y142.365 E2.99869
G1 X156.571 Y142.461 E3.00182
G1 X156.709 Y142.806 E3.01294
G1 X156.785 Y143.012 E3.01951
G1 X156.917 Y143.402 E3.03184
G1 X156.944 Y143.490 E3.03459
G1 X157.040 Y143.834 E3.04528
G1 X157.094 Y144.046 E3.05183
G1 X157.191 Y144.483 E3.06523
G1 X157.213 Y144.598 E3.06874
G1 X157.272 Y144.953 E3.07951
G1 X157.297 Y145.130 E3.08486
G1 X157.302 Y145.165 E3.08592
G1 X157.305 Y145.187 E3.08658
G1 X157.346 Y145.553 E3.09761
G1 X157.354 Y145.646 E3.10040
G1 X157.374 Y145.964 E3.10994
G1 X157.386 Y146.245 E3.11836
G1 X157.392 Y146.469 E3.12506
G1 X157.399 Y147.030 E3.14186
G1 X157.400 Y147.122 E3.14461
G1 X157.400 Y149.764 E3.22370
G1 X157.399 Y149.866 E3.22675
G1 X157.388 Y150.666 E3.25070
G1 X157.381 Y150.900 E3.25771
G1 X157.379 Y150.944 E3.25903
G1 X157.371 Y151.098 E3.26364
G1 X157.359 Y151.279 E3.26907
G1 X157.356 Y151.316 E3.27019
G1 X157.355 Y151.330 E3.27061
G1 X157.312 Y151.758 E3.28348
G1 X157.296 Y151.881 E3.28720
G1 X157.252 Y152.176 E3.29612
G1 X157.222 Y152.351 E3.30144
G1 X157.209 Y152.349 E3.30183
G1 X157.144 Y152.742 E3.31376
G1 X157.114 Y152.874 E3.31781
G1 X157.016 Y153.256 E3.32961
G1 X156.968 Y153.425 E3.33487
G1 X156.923 Y153.579 E3.33967
G1 X156.919 Y153.592 E3.34008
G1 X156.850 Y153.805 E3.34678
G1 X156.821 Y153.890 E3.34947
G1 X156.688 Y154.249 E3.36093
G1 X156.602 Y154.464 E3.36786
G1 X156.415 Y154.891 E3.38182
G1 X156.377 Y154.971 E3.38447
G1 X156.246 Y155.233 E3.39324
G1 X156.139 Y155.437 E3.40013
G1 X155.949 Y155.778 E3.41182
G1 X155.911 Y155.842 E3.41405
G1 X155.690 Y156.191 E3.42641
G1 X155.561 Y156.383 E3.43334
G1 X155.339 Y156.696 E3.44482
G1 X155.282 Y156.772 E3.44767
G1 X155.056 Y157.058 E3.45858
G1 X154.934 Y157.205 E3.46430
G1 X154.783 Y157.382 E3.47126
G1 X154.760 Y157.408 E3.47230
G1 X154.606 Y157.577 E3.47914
G1 X154.542 Y157.645 E3.48194
G1 X154.313 Y157.877 E3.49170
G1 X154.166 Y158.020 E3.49784
G1 X153.902 Y158.265 E3.50862
G1 X153.834 Y158.325 E3.51133
G1 X153.513 Y158.593 E3.52385
G1 X153.321 Y158.744 E3.53116
G1 X152.952 Y159.015 E3.54487
G1 X152.897 Y159.053 E3.54687
G1 X152.656 Y159.213 E3.55553
G1 X152.448 Y159.345 E3.56290
G1 X152.051 Y159.569 E3.57655
G1 X152.055 Y159.577 E3.57681
G1 X151.997 Y159.609 E3.57880
G1 X151.679 Y159.775 E3.58953
G1 X151.477 Y159.874 E3.59627
G1 X151.116 Y160.039 E3.60815
G1 X151.029 Y160.076 E3.61098
G1 X150.688 Y160.211 E3.62196
G1 X150.476 Y160.289 E3.62872
G1 X150.079 Y160.422 E3.64125
G1 X149.997 Y160.447 E3.64382
G1 X149.666 Y160.540 E3.65411
G1 X149.454 Y160.594 E3.66066
G1 X149.017 Y160.691 E3.67406
G1 X148.902 Y160.713 E3.67756
G1 X148.547 Y160.772 E3.68834
G1 X148.370 Y160.797 E3.69369
G1 X148.190 Y160.820 E3.69912
G1 X148.147 Y160.825 E3.70041
G1 X147.907 Y160.849 E3.70763
G1 X147.835 Y160.855 E3.70980
G1 X147.530 Y160.874 E3.71895
G1 X147.244 Y160.886 E3.72751
G1 X147.027 Y160.892 E3.73401
G1 X146.471 Y160.899 E3.75066
G1 X146.378 Y160.900 E3.75344
G1 X63.707 Y160.900 E6.22812
G1 X63.601 Y160.899 E6.23130
G1 X62.830 Y160.888 E6.25438
G1 X62.600 Y160.881 E6.26127
G1 X62.556 Y160.879 E6.26259
G1 X62.402 Y160.871 E6.26720
G1 X62.221 Y160.859 E6.27263
G1 X61.829 Y160.822 E6.28442
G1 X61.804 Y160.819 E6.28517
G1 X61.768 Y160.815 E6.28626
G1 X61.656 Y160.801 E6.28963
G1 X61.324 Y160.752 E6.29968
G1 X61.149 Y160.722 E6.30500
G1 X61.149 Y160.721 E6.30503
G1 X60.746 Y160.641 E6.31732
G1 X60.619 Y160.612 E6.32122
G1 X60.244 Y160.516 E6.33281
G1 X60.075 Y160.468 E6.33807
G1 X59.971 Y160.438 E6.34131
G1 X59.951 Y160.432 E6.34194
G1 X59.656 Y160.337 E6.35121
G1 X59.578 Y160.310 E6.35368
G1 X59.251 Y160.188 E6.36413
G1 X59.036 Y160.102 E6.37106
G1 X58.606 Y159.914 E6.38511
G1 X58.524 Y159.875 E6.38783
G1 X58.264 Y159.745 E6.39653
G1 X58.062 Y159.639 E6.40336
G1 X57.681 Y159.424 E6.41645
G1 X57.603 Y159.377 E6.41918
G1 X57.294 Y159.181 E6.43013
G1 X57.111 Y159.058 E6.43673
G1 X56.761 Y158.808 E6.44961
G1 X56.686 Y158.751 E6.45243
G1 X56.427 Y158.544 E6.46235
G1 X56.271 Y158.414 E6.46843
G1 X55.989 Y158.167 E6.47965
G1 X55.976 Y158.155 E6.48018
G1 X55.923 Y158.106 E6.48234
G1 X55.855 Y158.042 E6.48514
G1 X55.623 Y157.813 E6.49490
G1 X55.480 Y157.666 E6.50104
G1 X55.235 Y157.402 E6.51182
G1 X55.175 Y157.334 E6.51453
G1 X54.907 Y157.013 E6.52705
G1 X54.756 Y156.821 E6.53436
G1 X54.501 Y156.475 E6.54723
G1 X54.462 Y156.419 E6.54927
G1 X54.281 Y156.147 E6.55905
G1 X54.150 Y155.940 E6.56638
G1 X53.931 Y155.551 E6.57975
G1 X53.923 Y155.555 E6.58001
G1 X53.891 Y155.497 E6.58200
G1 X53.725 Y155.179 E6.59274
G1 X53.626 Y154.977 E6.59947
G1 X53.461 Y154.616 E6.61135
G1 X53.424 Y154.529 E6.61418
G1 X53.291 Y154.193 E6.62500
G1 X53.211 Y153.976 E6.63192
G1 X53.064 Y153.534 E6.64586
G1 X53.041 Y153.457 E6.64827
G1 X52.960 Y153.166 E6.65731
G1 X52.906 Y152.954 E6.66386
G1 X52.809 Y152.517 E6.67726
G1 X52.787 Y152.402 E6.68076
G1 X52.727 Y152.043 E6.69166
G1 X52.699 Y151.844 E6.69768
G1 X52.660 Y151.515 E6.70759
G1 X52.658 Y151.494 E6.70822
G1 X52.651 Y151.407 E6.71084
G1 X52.647 Y151.359 E6.71228
G1 X52.627 Y151.044 E6.72173
G1 X52.613 Y150.699 E6.73206
G1 X52.608 Y150.491 E6.73829
G1 X52.602 Y150.006 E6.75281
G1 X52.601 Y149.917 E6.75547
G1 X52.600 Y147.170 E6.83770
G1 X52.601 Y147.062 E6.84094
G1 X52.611 Y146.354 E6.86213
G1 X52.618 Y146.123 E6.86905
G1 X52.621 Y146.057 E6.87103
G1 X52.630 Y145.891 E6.87600
G1 X52.644 Y145.685 E6.88218
G1 X52.694 Y145.269 E6.89473
G1 X52.685 Y145.268 E6.89500
G1 X52.699 Y145.156 E6.89838
G1 X52.749 Y144.819 E6.90857
G1 X52.781 Y144.633 E6.91422
G1 X52.862 Y144.233 E6.92644
G1 X52.890 Y144.111 E6.93019
G1 X52.985 Y143.738 E6.94171
G1 X53.038 Y143.552 E6.94750
G1 X53.135 Y143.240 E6.95728
G1 X53.177 Y143.114 E6.96126
G1 X53.198 Y143.054 E6.96316
G1 X53.317 Y142.740 E6.97321
G1 X53.405 Y142.521 E6.98028
G1 X53.590 Y142.098 E6.99410
G1 X53.630 Y142.014 E6.99688
G1 X53.760 Y141.754 E7.00558
G1 X53.863 Y141.558 E7.01221
G1 X54.075 Y141.182 E7.02513
G1 X54.125 Y141.099 E7.02803
G1 X54.334 Y140.771 E7.03967
G1 X54.451 Y140.598 E7.04593
G1 X54.661 Y140.304 E7.05674
G1 X54.721 Y140.224 E7.05973
G1 X54.959 Y139.923 E7.07122
G1 X55.090 Y139.766 E7.07734
G1 X55.349 Y139.472 E7.08907
G1 X55.362 Y139.458 E7.08964
G1 X55.392 Y139.426 E7.09095
G1 X55.454 Y139.360 E7.09366
G1 X55.687 Y139.123 E7.10361
G1 X55.834 Y138.980 E7.10975
G1 X56.098 Y138.735 E7.12053
G1 X56.166 Y138.675 E7.12325
G1 X56.494 Y138.402 E7.13602
G1 X56.689 Y138.249 E7.14344
G1 X57.021 Y138.003 E7.15581
G1 X57.074 Y137.966 E7.15775
G1 X57.372 Y137.769 E7.16844
G1 X57.582 Y137.637 E7.17586
G1 X57.791 Y137.510 E7.18318
G1 X57.803 Y137.503 E7.18360
G1 X57.998 Y137.393 E7.19030
G1 X58.044 Y137.368 E7.19187
G1 X58.320 Y137.226 E7.20116
G1 X58.526 Y137.125 E7.20803
G1 X58.927 Y136.943 E7.22121
G1 X59.013 Y136.907 E7.22400
G0 X59.167 Y137.276
G1 X59.450 Y137.165 E7.23310
G1 X59.659 Y137.088 E7.23977
G1 X60.038 Y136.960 E7.25174
G1 X60.120 Y136.935 E7.25431
G1 X60.433 Y136.848 E7.26403
G1 X60.645 Y136.794 E7.27058
G1 X61.058 Y136.702 E7.28325
G1 X61.173 Y136.680 E7.28675
G1 X61.509 Y136.624 E7.29695
G1 X61.686 Y136.599 E7.30230
G1 X61.856 Y136.577 E7.30743
G1 X61.899 Y136.572 E7.30873
G1 X62.127 Y136.549 E7.31559
G1 X62.199 Y136.543 E7.31775
G1 X62.487 Y136.525 E7.32639
G1 X62.773 Y136.513 E7.33496
G1 X62.978 Y136.508 E7.34110
G1 X63.534 Y136.501 E7.35774
G1 X63.622 Y136.500 E7.36037
G1 X146.293 Y136.500 E9.83506
G1 X146.393 Y136.501 E9.83805
G1 X147.164 Y136.512 E9.86113
G1 X147.382 Y136.518 E9.86766
G1 X147.426 Y136.520 E9.86898
G1 X147.571 Y136.528 E9.87333
G1 X147.752 Y136.540 E9.87876
G1 X148.123 Y136.575 E9.88991
G1 X148.148 Y136.578 E9.89067
G1 X148.182 Y136.582 E9.89169
G1 X148.294 Y136.596 E9.89507
G1 X148.609 Y136.643 E9.90460
G1 X148.752 Y136.667 E9.90894
G1 X148.758 Y136.668 E9.90912
G1 X148.778 Y136.672 E9.90974
G1 X148.784 Y136.673 E9.90992
G1 X149.165 Y136.749 E9.92155
G1 X149.292 Y136.778 E9.92545
G1 X149.647 Y136.868 E9.93641
G1 X149.816 Y136.916 E9.94167
G1 X149.914 Y136.945 E9.94473
G1 X149.934 Y136.951 E9.94535
G1 X150.213 Y137.041 E9.95413
G1 X150.291 Y137.068 E9.95660
G1 X150.611 Y137.188 E9.96683
G1 X150.825 Y137.274 E9.97373
G1 X150.820 Y137.285 E9.97409
G1 X151.213 Y137.443 E9.98677
G1 X151.289 Y137.479 E9.98929
G1 X151.541 Y137.605 E9.99772
G1 X151.749 Y137.714 E10.00475
G1 X152.137 Y137.933 E10.01809
G1 X152.211 Y137.978 E10.02068
G1 X152.472 Y138.144 E10.02994
G1 X152.654 Y138.266 E10.03650
G1 X152.956 Y138.481 E10.04760
G1 X153.036 Y138.541 E10.05059
G1 X153.331 Y138.775 E10.06186
G1 X153.485 Y138.904 E10.06788
G1 X153.483 Y138.906 E10.06796
G1 X153.782 Y139.166 E10.07982
G1 X153.863 Y139.242 E10.08315
G1 X154.091 Y139.466 E10.09271
G1 X154.234 Y139.613 E10.09885
G1 X154.465 Y139.863 E10.10904
G1 X154.525 Y139.931 E10.11176
G1 X154.778 Y140.235 E10.12360
G1 X154.929 Y140.427 E10.13091
G1 X155.186 Y140.775 E10.14386
G1 X155.224 Y140.830 E10.14586
G1 X155.378 Y141.063 E10.15422
G1 X155.499 Y141.254 E10.16099
G1 X155.588 Y141.399 E10.16608
G1 X155.600 Y141.419 E10.16678
G1 X155.712 Y141.611 E10.17343
G1 X155.741 Y141.663 E10.17522
G1 X155.907 Y141.979 E10.18590
G1 X156.005 Y142.178 E10.19254
G1 X156.162 Y142.522 E10.20386
G1 X156.203 Y142.618 E10.20698
G1 X156.333 Y142.944 E10.21749
G1 X156.409 Y143.150 E10.22406
G1 X156.534 Y143.520 E10.23575
G1 X156.561 Y143.608 E10.23851
G1 X156.652 Y143.933 E10.24861
G1 X156.706 Y144.145 E10.25516
G1 X156.798 Y144.558 E10.26783
G1 X156.820 Y144.673 E10.27133
G1 X156.876 Y145.009 E10.28153
G1 X156.901 Y145.186 E10.28688
G1 X156.906 Y145.219 E10.28788
G1 X156.909 Y145.241 E10.28854
G1 X156.947 Y145.587 E10.29896
G1 X156.955 Y145.680 E10.30176
G1 X156.975 Y145.981 E10.31079
G1 X156.987 Y146.262 E10.31920
G1 X156.992 Y146.474 E10.32555
G1 X156.999 Y147.035 E10.34235
G1 X157.000 Y147.122 E10.34495
G1 X157.000 Y149.764 E10.42404
G1 X156.999 Y149.860 E10.42691
G1 X156.988 Y150.660 E10.45086
G1 X156.982 Y150.882 E10.45751
G1 X156.980 Y150.926 E10.45883
G1 X156.972 Y151.071 E10.46317
G1 X156.960 Y151.252 E10.46860
G1 X156.957 Y151.288 E10.46969
G1 X156.956 Y151.302 E10.47011
G1 X156.916 Y151.706 E10.48226
G1 X156.900 Y151.829 E10.48597
G1 X156.857 Y152.109 E10.49445
G1 X156.827 Y152.284 E10.49977
G1 X156.816 Y152.282 E10.50010
G1 X156.754 Y152.653 E10.51136
G1 X156.724 Y152.785 E10.51541
G1 X156.632 Y153.147 E10.52659
G1 X156.584 Y153.316 E10.53185
G1 X156.540 Y153.462 E10.53642
G1 X156.536 Y153.475 E10.53682
G1 X156.471 Y153.676 E10.54315
G1 X156.442 Y153.761 E10.54584
G1 X156.316 Y154.101 E10.55669
G1 X156.230 Y154.316 E10.56362
G1 X156.054 Y154.719 E10.57678
G1 X156.016 Y154.799 E10.57944
G1 X155.892 Y155.047 E10.58774
G1 X155.785 Y155.251 E10.59463
G1 X155.605 Y155.574 E10.60570
G1 X155.567 Y155.638 E10.60793
G1 X155.358 Y155.968 E10.61962
G1 X155.229 Y156.160 E10.62654
G1 X155.019 Y156.456 E10.63741
G1 X154.962 Y156.532 E10.64025
G1 X154.749 Y156.802 E10.65055
G1 X154.627 Y156.949 E10.65627
G1 X154.483 Y157.117 E10.66289
G1 X154.460 Y157.143 E10.66393
G1 X154.314 Y157.303 E10.67041
G1 X154.250 Y157.371 E10.67321
G1 X154.034 Y157.591 E10.68244
G1 X153.887 Y157.734 E10.68857
G1 X153.637 Y157.965 E10.69876
G1 X153.569 Y158.025 E10.70148
G1 X153.265 Y158.278 E10.71332
G1 X153.073 Y158.429 E10.72063
G1 X152.725 Y158.686 E10.73358
G1 X152.670 Y158.724 E10.73558
G1 X152.442 Y158.875 E10.74377
G1 X152.234 Y159.007 E10.75114
G1 X151.858 Y159.219 E10.76406
G1 X151.862 Y159.227 E10.76433
G1 X151.804 Y159.259 E10.76631
G1 X151.503 Y159.416 E10.77647
G1 X151.301 Y159.515 E10.78321
G1 X150.960 Y159.671 E10.79443
G1 X150.873 Y159.708 E10.79726
G1 X150.550 Y159.835 E10.80765
G1 X150.338 Y159.913 E10.81441
G1 X149.962 Y160.040 E10.82629
G1 X149.880 Y160.065 E10.82886
G1 X149.567 Y160.152 E10.83858
G1 X149.355 Y160.206 E10.84513
G1 X148.942 Y160.298 E10.85780
G1 X148.827 Y160.320 E10.86130
G1 X148.491 Y160.376 E10.87150
G1 X148.314 Y160.401 E10.87685
G1 X148.144 Y160.423 E10.88198
G1 X148.101 Y160.428 E10.88328
G1 X147.873 Y160.451 E10.89014
G1 X147.801 Y160.457 E10.89230
G1 X147.513 Y160.475 E10.90094
G1 X147.227 Y160.487 E10.90951
G1 X147.022 Y160.492 E10.91565
G1 X146.466 Y160.499 E10.93229
G1 X146.378 Y160.500 E10.93493
G1 X63.707 Y160.500 E13.40961
G1 X63.607 Y160.499 E13.41260
G1 X62.836 Y160.488 E13.43568
G1 X62.618 Y160.482 E13.44221
G1 X62.574 Y160.480 E13.44353
G1 X62.429 Y160.472 E13.44788
G1 X62.248 Y160.460 E13.45331
G1 X61.877 Y160.425 E13.46446
G1 X61.852 Y160.422 E13.46522
G1 X61.818 Y160.418 E13.46624
G1 X61.706 Y160.404 E13.46962
G1 X61.391 Y160.357 E13.47915
G1 X61.248 Y160.333 E13.48349
G1 X61.242 Y160.332 E13.48368
G1 X61.222 Y160.328 E13.48429
G1 X61.216 Y160.327 E13.48447
G1 X60.835 Y160.251 E13.49610
G1 X60.708 Y160.222 E13.50000
G1 X60.353 Y160.132 E13.51096
G1 X60.184 Y160.084 E13.51622
G1 X60.086 Y160.055 E13.51928
G1 X60.066 Y160.049 E13.51990
G1 X59.787 Y159.959 E13.52868
G1 X59.709 Y159.932 E13.53115
G1 X59.399 Y159.816 E13.54106
G1 X59.184 Y159.730 E13.54799
G1 X58.777 Y159.552 E13.56129
G1 X58.695 Y159.513 E13.56400
G1 X58.449 Y159.390 E13.57224
G1 X58.247 Y159.284 E13.57907
G1 X57.887 Y159.082 E13.59142
G1 X57.809 Y159.035 E13.59415
G1 X57.517 Y158.849 E13.60451
G1 X57.334 Y158.726 E13.61111
G1 X57.003 Y158.489 E13.62330
G1 X56.928 Y158.432 E13.62612
G1 X56.683 Y158.237 E13.63549
G1 X56.527 Y158.107 E13.64157
G1 X56.260 Y157.873 E13.65220
G1 X56.247 Y157.861 E13.65273
G1 X56.197 Y157.814 E13.65478
G1 X56.129 Y157.750 E13.65758
