; generated by Slic3r 1.2.9 on 2016-12-29 at 09:23:19

; external perimeters extrusion width = 0.40mm
; perimeters extrusion width = 0.67mm
; infill extrusion width = 0.67mm
; solid infill extrusion width = 0.67mm
; top infill extrusion width = 0.67mm

M107
M104 S210 ; set temperature
; -- START GCODE --
M800 ; Custom GCODE to fire start print procedure
; -- end of START GCODE --
M109 S210 ; wait for temperature to be reached
G21 ; set units to millimeters
G90 ; use absolute coordinates
M82 ; use absolute distances for extrusion
G92 E0
G1 Z0.400 F7800.000
G1 E-2.00000 F2400.00000
G92 E0
G1 X59.374 Y137.491 F7800.000
G1 E2.00000 F2400.00000
G1 X60.335 Y137.161 E2.12073 F1800.000
G1 X61.326 Y136.934 E2.24145
G1 X62.335 Y136.811 E2.36217
G1 X63.000 Y136.786 E2.44121
G1 X147.351 Y136.795 E12.45922
G1 X148.364 Y136.885 E12.57995 F1800.000
G1 X148.674 Y136.934 E12.61725
G1 X149.634 Y137.153 E12.73424
G1 X150.626 Y137.491 E12.85867
G1 X151.548 Y137.920 E12.97944
G1 X152.420 Y138.442 E13.10014
G1 X152.989 Y138.855 E13.18359
G1 X153.755 Y139.523 E13.30425
G1 X154.447 Y140.267 E13.42505
G1 X155.058 Y141.080 E13.54578
G1 X155.580 Y141.952 E13.66650
G1 X156.009 Y142.874 E13.78722
G1 X156.339 Y143.835 E13.90793
G1 X156.566 Y144.826 E14.02868
G1 X156.689 Y145.835 E14.14940
G1 X156.714 Y146.500 E14.22844
G1 X156.714 Y150.500 E14.70350
G1 X156.689 Y151.165 E14.78253
G1 X156.566 Y152.174 E14.90325
G1 X156.339 Y153.165 E15.02400
G1 X156.009 Y154.127 E15.14475
G1 X155.580 Y155.048 E15.26543
G1 X155.058 Y155.920 E15.38618
G1 X154.447 Y156.733 E15.50688
G1 X153.955 Y157.277 E15.59407
G1 X153.233 Y157.947 E15.71107
G1 X152.420 Y158.558 E15.83179
G1 X151.548 Y159.080 E15.95251
G1 X150.626 Y159.509 E16.07325
G1 X149.665 Y159.839 E16.19397
G1 X148.674 Y160.066 E16.31469
G1 X147.665 Y160.189 E16.43542
G1 X147.000 Y160.214 E16.51446
G1 X63.000 Y160.214 E26.49073
G1 X62.335 Y160.189 E26.56976
G1 X61.636 Y160.115 E26.65323
G1 X60.639 Y159.920 E26.77396
G1 X59.667 Y159.621 E26.89468
G1 X59.374 Y159.509 E26.93198
G1 X58.480 Y159.095 E27.04899
G1 X57.843 Y158.729 E27.13616
G1 X57.011 Y158.145 E27.25689
G1 X56.767 Y157.947 E27.29420
G1 X56.023 Y157.255 E27.41491
G1 X55.553 Y156.733 E27.49838
G1 X55.355 Y156.489 E27.53567
G1 X54.771 Y155.657 E27.65640
G1 X54.291 Y154.796 E27.77339
G1 X53.991 Y154.126 E27.86058
G1 X53.879 Y153.833 E27.89789
G1 X53.580 Y152.861 E28.01861
G1 X53.390 Y151.895 E28.13560
G1 X53.311 Y151.165 E28.22279
G1 X53.286 Y150.500 E28.30183
G1 X53.286 Y146.500 E28.77689
G1 X53.311 Y145.835 E28.85592
G1 X53.434 Y144.826 E28.97664
G1 X53.580 Y144.138 E29.06012
G1 X53.661 Y143.835 E29.09742
G1 X53.991 Y142.874 E29.21813
G1 X54.420 Y141.952 E29.33886
G1 X54.771 Y141.343 E29.42232
G1 X55.355 Y140.511 E29.54305
G1 X56.023 Y139.745 E29.66376
G1 X56.767 Y139.053 E29.78450
G1 X57.580 Y138.442 E29.90522
G1 X58.452 Y137.920 E30.02595
G1 X59.319 Y137.516 E30.13955
G1 E28.13955 F2400.00000
G92 E0
G1 X66.855 Y152.158 F7800.000
G1 E2.00000 F2400.00000
G1 X66.478 Y152.276 E2.04693 F1800.000
G1 X66.091 Y152.356 E2.09385
G1 X65.698 Y152.396 E2.14078
G1 X65.302 Y152.396 E2.18770
G1 X64.909 Y152.356 E2.23463
G1 X64.522 Y152.276 E2.28156
G1 X64.145 Y152.158 E2.32848
G1 X63.782 Y152.002 E2.37541
G1 X63.437 Y151.810 E2.42233
G1 X63.112 Y151.584 E2.46926
G1 X62.813 Y151.327 E2.51619
G1 X62.540 Y151.041 E2.56311
G1 X62.299 Y150.728 E2.61004
G1 X62.090 Y150.393 E2.65696
G1 X61.916 Y150.038 E2.70389
G1 X61.778 Y149.668 E2.75082
G1 X61.679 Y149.285 E2.79774
G1 X61.619 Y148.895 E2.84467
G1 X61.599 Y148.500 E2.89159
G1 X61.619 Y148.105 E2.93852
G1 X61.679 Y147.715 E2.98545
G1 X61.778 Y147.332 E3.03237
G1 X61.916 Y146.962 E3.07930
G1 X62.090 Y146.607 E3.12622
G1 X62.299 Y146.272 E3.17315
G1 X62.540 Y145.959 E3.22008
G1 X62.813 Y145.673 E3.26700
G1 X63.112 Y145.416 E3.31393
G1 X63.437 Y145.190 E3.36085
G1 X63.782 Y144.998 E3.40778
G1 X64.145 Y144.842 E3.45471
G1 X64.522 Y144.724 E3.50163
G1 X64.909 Y144.644 E3.54856
G1 X65.302 Y144.604 E3.59548
G1 X65.698 Y144.604 E3.64241 F1800.000
G1 X66.091 Y144.644 E3.68934
G1 X66.478 Y144.724 E3.73626
G1 X66.819 Y144.831 E3.77876
G1 X67.216 Y144.997 E3.82987
G1 X67.563 Y145.190 E3.87702
G1 X67.888 Y145.416 E3.92395
G1 X68.187 Y145.673 E3.97087
G1 X68.460 Y145.959 E4.01780
G1 X68.701 Y146.272 E4.06472
G1 X68.910 Y146.607 E4.11165
G1 X69.084 Y146.962 E4.15858
G1 X69.222 Y147.332 E4.20550
G1 X69.321 Y147.715 E4.25243
G1 X69.381 Y148.105 E4.29935
G1 X69.401 Y148.500 E4.34628
G1 X69.381 Y148.895 E4.39321
G1 X69.321 Y149.285 E4.44013
G1 X69.222 Y149.668 E4.48706
G1 X69.084 Y150.038 E4.53398
G1 X68.910 Y150.393 E4.58091
G1 X68.701 Y150.728 E4.62784
G1 X68.460 Y151.041 E4.67476
G1 X68.187 Y151.327 E4.72169
G1 X67.888 Y151.584 E4.76861
G1 X67.563 Y151.810 E4.81554
G1 X67.218 Y152.002 E4.86247
G1 X66.910 Y152.134 E4.90227
G1 X66.782 Y152.546 F7800.000
G1 E2.90227 F2400.00000
G92 E0
G1 X61.564 Y150.684 F7800.000
G1 X61.564 Y146.316 F7800.000
G1 X61.536 Y146.146 F7800.000
G1 E2.00000 F2400.00000
G1 X61.187 Y145.972 E2.04625 F1800.000
G1 X61.279 Y145.734 E2.07660
G1 X61.461 Y145.414 E2.12029
G1 X61.603 Y145.235 E2.14742
G1 X61.892 Y144.976 E2.19358
G1 X62.091 Y144.847 E2.22165
G1 X62.334 Y145.140 E2.26689
G1 X61.998 Y145.494 E2.32486
G1 X61.712 Y145.863 E2.38039
G1 X61.567 Y146.095 E2.41279
G1 X61.541 Y150.863 F7800.000
G1 X61.712 Y151.137 E2.45117 F1800.000
G1 X61.998 Y151.506 E2.50670
G1 X62.334 Y151.860 E2.56466
G1 X62.091 Y152.153 E2.60990
G1 X61.892 Y152.024 E2.63797
G1 X61.600 Y151.761 E2.68476
G1 X61.476 Y151.608 E2.70818
G1 X61.290 Y151.290 E2.75187
G1 X61.191 Y151.039 E2.78394
G1 X61.487 Y150.889 E2.82328
G1 E0.82328 F2400.00000
G92 E0
G1 X61.400 Y151.020 F7800.000
G1 X69.895 Y151.614 F7800.000
G1 X69.796 Y151.672 F7800.000
G1 E2.00000 F2400.00000
G1 X70.161 Y151.087 E2.08183 F1800.000
G1 X70.399 Y150.602 E2.14596
G1 X70.586 Y150.096 E2.21009
G1 X70.722 Y149.573 E2.27422
G1 X70.803 Y149.039 E2.33835
G1 X70.831 Y148.500 E2.40249
G1 X70.803 Y147.961 E2.46662
G1 X70.722 Y147.427 E2.53075
G1 X70.586 Y146.904 E2.59488
G1 X70.399 Y146.398 E2.65901
G1 X70.161 Y145.913 E2.72314
G1 X69.796 Y145.328 E2.80497
G1 X146.952 Y145.328 E11.96838
G1 X147.100 Y145.336 E11.98592
G1 X147.361 Y145.388 E12.01761
G1 X147.585 Y145.487 E12.04664
G1 X147.782 Y145.631 E12.07567
G1 X147.946 Y145.813 E12.10470
G1 X148.013 Y145.915 E12.11923
G1 X148.112 Y146.139 E12.14826
G1 X148.163 Y146.378 E12.17729
G1 X148.172 Y150.452 E12.66118
G1 X148.144 Y150.743 E12.69590
G1 X148.112 Y150.861 E12.71043
G1 X148.013 Y151.085 E12.73946
G1 X147.782 Y151.369 E12.78290
G1 X147.687 Y151.446 E12.79744
G1 X147.476 Y151.568 E12.82647
G1 X147.265 Y151.638 E12.85281
G1 X147.114 Y151.663 E12.87105
G1 X69.856 Y151.672 E22.04650
G1 X68.050 Y152.386 F7800.000
G1 X68.680 Y151.845 E22.14505 F1800.000
G1 X69.002 Y151.506 E22.20058
G1 X69.288 Y151.137 E22.25611
G1 X69.536 Y150.740 E22.31164
G1 X69.742 Y150.320 E22.36717
G1 X69.904 Y149.882 E22.42270
G1 X70.021 Y149.429 E22.47822
G1 X70.092 Y148.967 E22.53375
G1 X70.116 Y148.500 E22.58928
G1 X70.092 Y148.033 E22.64481
G1 X70.021 Y147.571 E22.70034
G1 X69.904 Y147.118 E22.75587
G1 X69.742 Y146.680 E22.81140
G1 X69.536 Y146.260 E22.86693
G1 X69.288 Y145.863 E22.92246
G1 X69.002 Y145.494 E22.97799
G1 X68.680 Y145.155 E23.03351
G1 X68.050 Y144.614 E23.13206
G1 X146.971 Y144.614 E32.50506
G1 X147.397 Y144.658 E32.55593
G1 X147.582 Y144.708 E32.57873
G1 X147.942 Y144.868 E32.62551
G1 X148.261 Y145.100 E32.67230
G1 X148.524 Y145.392 E32.71908
G1 X148.632 Y145.558 E32.74251
G1 X148.792 Y145.918 E32.78929
G1 X148.874 Y146.303 E32.83608
G1 X148.886 Y150.471 E33.33107
G1 X148.874 Y150.697 E33.35796
G1 X148.792 Y151.082 E33.40475
G1 X148.721 Y151.266 E33.42817
G1 X148.527 Y151.603 E33.47433
G1 X148.382 Y151.779 E33.50146
G1 X148.108 Y152.024 E33.54515
G1 X147.766 Y152.221 E33.59194
G1 X147.582 Y152.292 E33.61536
G1 X147.192 Y152.374 E33.66277
G1 X68.110 Y152.386 E43.05487
G1 X68.050 Y153.100 F7800.000
G1 X63.010 Y153.100 E43.65344 F1800.000
G1 X62.728 Y153.085 E43.68700
G1 X62.460 Y153.043 E43.71931
G1 X62.197 Y152.972 E43.75163
G1 X61.970 Y152.885 E43.78044
G1 X61.699 Y152.750 E43.81646
G1 X61.472 Y152.603 E43.84855
G1 X61.261 Y152.432 E43.88087
G1 X61.068 Y152.239 E43.91318
G1 X60.897 Y152.028 E43.94550
G1 X60.749 Y151.800 E43.97781
G1 X60.639 Y151.584 E44.00662
G1 X60.527 Y151.301 E44.04265
G1 X60.457 Y151.040 E44.07474
G1 X60.415 Y150.772 E44.10705
G1 X60.400 Y150.490 E44.14061
G1 X60.400 Y146.510 E44.61319
G1 X60.415 Y146.228 E44.64675
G1 X60.453 Y145.989 E44.67556
G1 X60.528 Y145.695 E44.71158
G1 X60.625 Y145.443 E44.74367
G1 X60.749 Y145.200 E44.77599
G1 X60.881 Y144.997 E44.80480
G1 X61.070 Y144.759 E44.84082
G1 X61.261 Y144.568 E44.87291
G1 X61.472 Y144.397 E44.90523
G1 X61.700 Y144.249 E44.93754
G1 X61.943 Y144.125 E44.96986
G1 X62.197 Y144.028 E45.00217
G1 X62.460 Y143.957 E45.03449
G1 X62.728 Y143.915 E45.06680
G1 X63.010 Y143.900 E45.10036
G1 X146.990 Y143.900 E55.07415
G1 X147.242 Y143.913 E55.10420
G1 X147.542 Y143.958 E55.14023 F1800.000
G1 X147.803 Y144.028 E55.17232
G1 X148.057 Y144.125 E55.20463
G1 X148.300 Y144.249 E55.23695
G1 X148.528 Y144.397 E55.26926
G1 X148.739 Y144.568 E55.30158
G1 X148.932 Y144.761 E55.33389
G1 X149.103 Y144.972 E55.36621
G1 X149.251 Y145.200 E55.39852
G1 X149.375 Y145.443 E55.43084
G1 X149.472 Y145.697 E55.46315
G1 X149.543 Y145.960 E55.49547
G1 X149.585 Y146.228 E55.52778
G1 X149.600 Y146.510 E55.56134
G1 X149.600 Y150.490 E56.03391
G1 X149.585 Y150.772 E56.06747
G1 X149.543 Y151.040 E56.09979
G1 X149.472 Y151.303 E56.13210
G1 X149.375 Y151.557 E56.16442
G1 X149.251 Y151.800 E56.19673
G1 X149.104 Y152.026 E56.22882
G1 X148.911 Y152.260 E56.26485
G1 X148.739 Y152.432 E56.29366
G1 X148.528 Y152.603 E56.32597
G1 X148.300 Y152.751 E56.35829
G1 X148.057 Y152.875 E56.39060
G1 X147.803 Y152.972 E56.42292
G1 X147.569 Y153.035 E56.45173
G1 X147.270 Y153.085 E56.48776
G1 X146.990 Y153.100 E56.52109
G1 X68.110 Y153.100 E65.88918
G1 X67.850 Y152.754 F7800.000
G1 X64.808 Y152.721 F7800.000
G1 X63.983 Y152.615 E65.98804 F1800.000
G1 X63.538 Y152.524 E66.04191
G1 X63.050 Y152.397 E66.10182
G1 X62.506 Y152.212 E66.17006
G1 X61.237 Y150.616 F7800.000
G1 X61.108 Y149.897 E66.35402 F1800.000
G1 X61.048 Y149.430 E66.47249
G1 X61.000 Y148.512 E66.70390
G1 X61.048 Y147.570 E66.94148
G1 X61.108 Y147.103 E67.05995
G1 X61.235 Y146.395 E67.24118
G1 X62.506 Y144.788 F7800.000
G1 X63.050 Y144.603 E67.30942 F1800.000
G1 X63.538 Y144.476 E67.36933
G1 X63.983 Y144.385 E67.42321
G1 X64.808 Y144.279 E67.52206
G1 E65.52206 F2400.00000
G92 E0
G1 X69.636 Y146.725 F7800.000
G1 X74.001 Y148.500 F7800.000
G1 X72.304 Y150.026 F7800.000
G1 X71.641 Y150.531 F7800.000
G1 X71.185 Y150.849 F7800.000
G1 X71.023 Y150.955 F7800.000
G1 X70.682 Y150.898 F7800.000
G1 E2.00000 F2400.00000
G1 X71.019 Y151.236 E2.05725 F1800.000
G1 X72.038 Y151.236 E2.17930
G1 X70.976 Y150.174 E2.35930
G1 X71.174 Y149.353 E2.46041
G1 X73.057 Y151.236 E2.77936
G1 X74.076 Y151.236 E2.90140
G1 X71.263 Y148.423 E3.37791
G1 X71.169 Y147.311 E3.51169
G1 X75.094 Y151.236 E4.17670
G1 X76.113 Y151.235 E4.29875
G1 X70.686 Y145.809 E5.21817
G1 X71.660 Y145.764 E5.33497
G1 X77.132 Y151.235 E6.26198
G1 X78.150 Y151.235 E6.38403
G1 X72.679 Y145.764 E7.31101
G1 X73.698 Y145.764 E7.43308
G1 X79.169 Y151.235 E8.36002
G1 X80.188 Y151.235 E8.48207
G1 X74.717 Y145.764 E9.40898
G1 X75.736 Y145.764 E9.53105
G1 X81.207 Y151.235 E10.45792
G1 X82.225 Y151.235 E10.57997
G1 X76.755 Y145.765 E11.50680
G1 X77.774 Y145.765 E11.62887
G1 X83.244 Y151.235 E12.55567
G1 X84.263 Y151.235 E12.67772
G1 X78.793 Y145.765 E13.60448
G1 X79.812 Y145.765 E13.72655
G1 X85.281 Y151.234 E14.65328
G1 X86.300 Y151.234 E14.77532
G1 X80.831 Y145.765 E15.70201
G1 X81.850 Y145.765 E15.82409
G1 X87.319 Y151.234 E16.75074
G1 X88.338 Y151.234 E16.87279
G1 X82.869 Y145.765 E17.79940
G1 X83.887 Y145.765 E17.92148
G1 X89.356 Y151.234 E18.84806
G1 X90.375 Y151.234 E18.97010
G1 X84.906 Y145.765 E19.89665
G1 X85.925 Y145.765 E20.01872
G1 X91.394 Y151.234 E20.94523
G1 X92.412 Y151.234 E21.06728
G1 X86.944 Y145.766 E21.99375
G1 X87.963 Y145.766 E22.11582
G1 X93.431 Y151.234 E23.04226
G1 X94.450 Y151.233 E23.16431
G1 X88.982 Y145.766 E24.09071
G1 X90.001 Y145.766 E24.21278
G1 X95.468 Y151.233 E25.13914
G1 X96.487 Y151.233 E25.26119
G1 X91.020 Y145.766 E26.18752
G1 X92.039 Y145.766 E26.30959
G1 X97.506 Y151.233 E27.23588
G1 X98.525 Y151.233 E27.35793
G1 X93.058 Y145.766 E28.28418
G1 X94.077 Y145.766 E28.40626
G1 X99.543 Y151.233 E29.33248
G1 X100.562 Y151.233 E29.45452
G1 X95.096 Y145.766 E30.38071
G1 X96.115 Y145.766 E30.50278
G1 X101.581 Y151.233 E31.42893
G1 X102.599 Y151.233 E31.55097
G1 X97.133 Y145.767 E32.47708
G1 X98.152 Y145.767 E32.59916
G1 X103.618 Y151.232 E33.52523
G1 X104.637 Y151.232 E33.64728
G1 X99.171 Y145.767 E34.57332
G1 X100.190 Y145.767 E34.69539
G1 X105.656 Y151.232 E35.62139
G1 X106.674 Y151.232 E35.74344
G1 X101.209 Y145.767 E36.66941
G1 X102.228 Y145.767 E36.79148
G1 X107.693 Y151.232 E37.71741
G1 X108.712 Y151.232 E37.83946
G1 X103.247 Y145.767 E38.76535
G1 X104.266 Y145.767 E38.88742
G1 X109.730 Y151.232 E39.81328
G1 X110.749 Y151.232 E39.93533
G1 X105.285 Y145.767 E40.86115
G1 X106.304 Y145.767 E40.98322
G1 X111.768 Y151.232 E41.90901
G1 X112.787 Y151.231 E42.03106
G1 X107.323 Y145.768 E42.95681
G1 X108.342 Y145.768 E43.07888
G1 X113.805 Y151.231 E44.00459
G1 X114.824 Y151.231 E44.12664
G1 X109.361 Y145.768 E45.05232
G1 X110.379 Y145.768 E45.17439
G1 X115.843 Y151.231 E46.10003
G1 X116.861 Y151.231 E46.22208
G1 X111.398 Y145.768 E47.14768
G1 X112.417 Y145.768 E47.26976
G1 X117.880 Y151.231 E48.19532
G1 X118.899 Y151.231 E48.31737
G1 X113.436 Y145.768 E49.24290
G1 X114.455 Y145.768 E49.36498
G1 X119.918 Y151.231 E50.29047
G1 X120.936 Y151.231 E50.41252
G1 X115.474 Y145.768 E51.33798
G1 X116.493 Y145.769 E51.46005
G1 X121.955 Y151.230 E52.38548
G1 X122.974 Y151.230 E52.50752
G1 X117.512 Y145.769 E53.43291
G1 X118.531 Y145.769 E53.55498
G1 X123.992 Y151.230 E54.48034
G1 X125.011 Y151.230 E54.60238
G1 X119.550 Y145.769 E55.52770
G1 X120.569 Y145.769 E55.64977
G1 X126.030 Y151.230 E56.57505
G1 X127.049 Y151.230 E56.69710
G1 X121.588 Y145.769 E57.62234
G1 X122.607 Y145.769 E57.74441
G1 X128.067 Y151.230 E58.66962
G1 X129.086 Y151.230 E58.79167
G1 X123.626 Y145.769 E59.71684
G1 X124.644 Y145.769 E59.83891
G1 X130.105 Y151.230 E60.76405
G1 X131.123 Y151.229 E60.88610
G1 X125.663 Y145.769 E61.81119
G1 X126.682 Y145.770 E61.93327
G1 X132.142 Y151.229 E62.85833
G1 X133.161 Y151.229 E62.98038
G1 X127.701 Y145.770 E63.90540
G1 X128.720 Y145.770 E64.02748
G1 X134.180 Y151.229 E64.95247
G1 X135.198 Y151.229 E65.07451
G1 X129.739 Y145.770 E65.99947
G1 X130.758 Y145.770 E66.12154
G1 X136.217 Y151.229 E67.04646
G1 X137.236 Y151.229 E67.16851
G1 X131.777 Y145.770 E68.09339
G1 X132.796 Y145.770 E68.21546
G1 X138.254 Y151.229 E69.14031
G1 X139.273 Y151.229 E69.26235
G1 X133.815 Y145.770 E70.18716
G1 X134.834 Y145.770 E70.30924
G1 X140.292 Y151.228 E71.23401
G1 X141.310 Y151.228 E71.35606
G1 X135.853 Y145.770 E72.28079
G1 X136.872 Y145.771 E72.40287
G1 X142.329 Y151.228 E73.32757
G1 X143.348 Y151.228 E73.44962
G1 X137.890 Y145.771 E74.37428
G1 X138.909 Y145.771 E74.49635
G1 X144.367 Y151.228 E75.42098
G1 X145.385 Y151.228 E75.54303
G1 X139.928 Y145.771 E76.46762
G1 X140.947 Y145.771 E76.58970
G1 X146.404 Y151.228 E77.51425
G1 X147.379 Y151.183 E77.63113
G1 X141.966 Y145.771 E78.54816
G1 X142.985 Y145.771 E78.67023
G1 X147.736 Y150.522 E79.47521
G1 X147.736 Y149.503 E79.59727
G1 X144.004 Y145.771 E80.22962
G1 X145.023 Y145.771 E80.35169
G1 X147.736 Y148.485 E80.81140
G1 X147.736 Y147.466 E80.93346
G1 X146.042 Y145.771 E81.22053
G1 X147.143 Y145.854 E81.35279
G1 X147.654 Y146.365 E81.43943
M104 S205 ; set temperature
G1 Z0.600 F7800.000
G1 X67.291 Y151.732 F7800.000
G1 X67.130 Y151.822 E81.44493 F900.000
G1 X66.785 Y151.970 E81.45606
G1 X66.427 Y152.082 E81.46718
G1 X66.060 Y152.158 E81.47831
G1 X65.687 Y152.196 E81.48944
G1 X65.313 Y152.196 E81.50057
G1 X64.940 Y152.158 E81.51170
