; G-Code generated by Simplify3D(R) Version 3.1.1
; dic. 28, 2016 at 12:33:02 
; Settings Summary
;   processName,Process1
;   applyToModels,DrMaker_Keychain
;   profileName,Hephestos2 
;   profileVersion,2016-12-26 11:57:57
;   baseProfile,Default (modified)
;   printMaterial,PLA
;   printQuality,Medium
;   printExtruders,
;   extruderName,Primary Extruder
;   extruderToolheadNumber,0
;   extruderDiameter,0.4
;   extruderAutoWidth,1
;   extruderWidth,0.48
;   extrusionMultiplier,0.9
;   extruderUseRetract,1
;   extruderRetractionDistance,6.5
;   extruderExtraRestartDistance,0
;   extruderRetractionZLift,0.1
;   extruderRetractionSpeed,1500
;   extruderUseCoasting,0
;   extruderCoastingDistance,0.2
;   extruderUseWipe,0
;   extruderWipeDistance,5
;   primaryExtruder,0
;   layerHeight,0.2
;   topSolidLayers,3
;   bottomSolidLayers,3
;   perimeterOutlines,2
;   printPerimetersInsideOut,1
;   startPointOption,2
;   startPointOriginX,0
;   startPointOriginY,0
;   startPointOriginZ,300
;   sequentialIslands,0
;   spiralVaseMode,0
;   firstLayerHeightPercentage,90
;   firstLayerWidthPercentage,100
;   firstLayerUnderspeed,0.5
;   useRaft,0
;   raftExtruder,0
;   raftLayers,3
;   raftOffset,3
;   raftSeparationDistance,0.14
;   raftInfill,85
;   disableRaftBaseLayers,0
;   useSkirt,1
;   skirtExtruder,0
;   skirtLayers,1
;   skirtOutlines,3
;   skirtOffset,5
;   usePrimePillar,0
;   primePillarExtruder,999
;   primePillarWidth,12
;   primePillarLocation,7
;   primePillarSpeedMultiplier,1
;   useOozeShield,0
;   oozeShieldExtruder,999
;   oozeShieldOffset,2
;   oozeShieldOutlines,1
;   oozeShieldSidewallShape,1
;   oozeShieldSidewallAngle,30
;   oozeShieldSpeedMultiplier,1
;   infillExtruder,0
;   internalInfillPattern,Grid
;   externalInfillPattern,Rectilinear
;   infillPercentage,20
;   outlineOverlapPercentage,15
;   infillExtrusionWidthPercentage,100
;   minInfillLength,5
;   infillLayerInterval,1
;   infillAngles,45,-45
;   overlapInfillAngles,1
;   generateSupport,0
;   supportExtruder,0
;   supportInfillPercentage,15
;   supportExtraInflation,0
;   denseSupportLayers,0
;   denseSupportInfillPercentage,70
;   supportLayerInterval,2
;   supportHorizontalPartOffset,0.3
;   supportUpperSeparationLayers,1
;   supportLowerSeparationLayers,1
;   supportType,0
;   supportGridSpacing,4
;   maxOverhangAngle,45
;   supportAngles,0
;   temperatureName,Primary Extruder
;   temperatureNumber,0
;   temperatureSetpointCount,2
;   temperatureSetpointLayers,1,2
;   temperatureSetpointTemperatures,205,210
;   temperatureStabilizeAtStartup,1
;   temperatureHeatedBed,0
;   temperatureRelayBetweenLayers,0
;   temperatureRelayBetweenLoops,0
;   fanLayers,1,2
;   fanSpeeds,0,100
;   blipFanToFullPower,0
;   adjustSpeedForCooling,1
;   minSpeedLayerTime,15
;   minCoolingSpeedSlowdown,20
;   increaseFanForCooling,0
;   minFanLayerTime,45
;   maxCoolingFanSpeed,100
;   increaseFanForBridging,0
;   bridgingFanSpeed,100
;   use5D,1
;   relativeEdistances,0
;   allowEaxisZeroing,1
;   independentExtruderAxes,0
;   includeM10123,0
;   stickySupport,1
;   applyToolheadOffsets,0
;   gcodeXoffset,0
;   gcodeYoffset,0
;   gcodeZoffset,0
;   overrideMachineDefinition,0
;   machineTypeOverride,0
;   strokeXoverride,200
;   strokeYoverride,200
;   strokeZoverride,200
;   originOffsetXoverride,0
;   originOffsetYoverride,0
;   originOffsetZoverride,0
;   homeXdirOverride,-1
;   homeYdirOverride,-1
;   homeZdirOverride,-1
;   flipXoverride,1
;   flipYoverride,-1
;   flipZoverride,1
;   toolheadOffsets,0,0|0,0|0,0|0,0|0,0|0,0
;   overrideFirmwareConfiguration,0
;   firmwareTypeOverride,RepRap (Marlin/Repetier/Sprinter)
;   GPXconfigOverride,r2
;   baudRateOverride,115200
;   overridePrinterModels,0
;   printerModelsOverride
;   startingGcode,; -- START GCODE --,M104 S[extruder0_temperature] T0;,M800 ; Custom GCODE to fire start print procedure,M109 S[extruder0_temperature] T0; Makes sure the temperature is correct before printing,; -- end of START GCODE --
;   layerChangeGcode,
;   retractionGcode,
;   toolChangeGcode,
;   endingGcode,; -- END GCODE --,M801        ; Custom GCODE to fire end print procedure,; -- end of END GCODE --
;   exportFileFormat,gcode
;   celebration,0
;   celebrationSong,Random Song
;   postProcessing,
;   defaultSpeed,3600
;   outlineUnderspeed,0.5
;   solidInfillUnderspeed,0.5
;   supportUnderspeed,0.8
;   rapidXYspeed,4800
;   rapidZspeed,1002
;   minBridgingArea,50
;   bridgingExtraInflation,0
;   bridgingExtrusionMultiplier,1
;   bridgingSpeedMultiplier,1
;   filamentDiameter,1.75
;   filamentPricePerKg,20
;   filamentDensity,1.25
;   useMinPrintHeight,0
;   minPrintHeight,0
;   useMaxPrintHeight,0
;   maxPrintHeight,1
;   useDiaphragm,0
;   diaphragmLayerInterval,20
;   robustSlicing,1
;   mergeAllIntoSolid,0
;   onlyRetractWhenCrossingOutline,1
;   retractBetweenLayers,1
;   useRetractionMinTravel,0
;   retractionMinTravel,3
;   retractWhileWiping,0
;   onlyWipeOutlines,1
;   avoidCrossingOutline,0
;   maxMovementDetourFactor,3
;   toolChangeRetractionDistance,12
;   toolChangeExtraRestartDistance,-0.5
;   toolChangeRetractionSpeed,600
;   allowThinWallGapFill,1
;   thinWallAllowedOverlapPercentage,10
;   horizontalSizeCompensation,0
G90
M82
M106 S0
; -- START GCODE --
M104 S205 T0;
M800 ; Custom GCODE to fire start print procedure
M109 S205 T0; Makes sure the temperature is correct before printing
; -- end of START GCODE --
G92 E0
G1 E-6.5000 F1500
G1 Z0.280 F1002
; layer 1, Z = 0.18
T0
; tool H0.200 W0.480
; skirt
G1 X59.204 Y138.115 F4800
G1 Z0.180 F1002
G1 E0.0000 F450
G92 E0
G1 X59.610 Y137.947 E0.0158 F1800
G1 X59.655 Y137.931 E0.0175
G1 X60.670 Y137.601 E0.0558
G1 X60.715 Y137.588 E0.0575
G1 X61.143 Y137.485 E0.0733
G1 X61.189 Y137.476 E0.0750
G1 X61.934 Y137.358 E0.1021
G1 X61.980 Y137.353 E0.1038
G1 X62.418 Y137.318 E0.1196
G1 X62.465 Y137.316 E0.1213
G1 X147.072 Y137.300 E3.1604
G1 X147.088 Y137.300 E3.1610
G1 X147.235 Y137.304 E3.1663
G1 X147.251 Y137.305 E3.1668
G1 X147.858 Y137.336 E3.1887
G1 X147.905 Y137.341 E3.1904
G1 X148.341 Y137.398 E3.2062
G1 X148.387 Y137.406 E3.2079
G1 X149.503 Y137.643 E3.2488
G1 X149.564 Y137.660 E3.2511
G1 X150.122 Y137.841 E3.2722
G1 X150.181 Y137.863 E3.2744
G1 X151.290 Y138.357 E3.3180
G1 X151.346 Y138.386 E3.3203
G1 X151.854 Y138.679 E3.3414
G1 X151.907 Y138.713 E3.3436
G1 X152.830 Y139.384 E3.3846
G1 X152.867 Y139.413 E3.3863
G1 X153.201 Y139.699 E3.4021
G1 X153.236 Y139.731 E3.4038
G1 X153.769 Y140.264 E3.4309
G1 X153.801 Y140.299 E3.4326
G1 X154.087 Y140.633 E3.4484
G1 X154.116 Y140.670 E3.4501
G1 X154.743 Y141.534 E3.4884
G1 X154.769 Y141.573 E3.4901
G1 X154.999 Y141.948 E3.5059
G1 X155.022 Y141.989 E3.5076
G1 X155.365 Y142.661 E3.5347
G1 X155.384 Y142.704 E3.5364
G1 X155.553 Y143.110 E3.5522
G1 X155.569 Y143.155 E3.5539
G1 X155.922 Y144.239 E3.5949
G1 X155.938 Y144.300 E3.5971
G1 X156.060 Y144.874 E3.6182
G1 X156.070 Y144.936 E3.6205
G1 X156.181 Y145.998 E3.6588
G1 X156.184 Y146.029 E3.6599
G1 X156.199 Y146.322 E3.6705
G1 X156.200 Y146.353 E3.6716
G1 X156.200 Y150.647 E3.8258
G1 X156.199 Y150.678 E3.8269
G1 X156.184 Y150.971 E3.8375
G1 X156.181 Y151.002 E3.8386
G1 X156.070 Y152.064 E3.8769
G1 X156.060 Y152.126 E3.8792
G1 X155.938 Y152.700 E3.9003
G1 X155.922 Y152.761 E3.9025
G1 X155.569 Y153.845 E3.9435
G1 X155.553 Y153.890 E3.9452
G1 X155.385 Y154.296 E3.9610
G1 X155.365 Y154.339 E3.9627
G1 X155.022 Y155.011 E3.9898
G1 X154.999 Y155.052 E3.9915
G1 X154.769 Y155.427 E4.0073
G1 X154.743 Y155.466 E4.0090
G1 X154.073 Y156.389 E4.0500
G1 X154.033 Y156.438 E4.0522
G1 X153.641 Y156.874 E4.0733
G1 X153.596 Y156.919 E4.0756
G1 X152.694 Y157.731 E4.1192
G1 X152.645 Y157.770 E4.1214
G1 X152.170 Y158.115 E4.1425
G1 X152.118 Y158.150 E4.1448
G1 X151.066 Y158.757 E4.1884
G1 X151.010 Y158.785 E4.1906
G1 X150.474 Y159.024 E4.2117
G1 X150.415 Y159.046 E4.2140
G1 X149.330 Y159.399 E4.2549
G1 X149.285 Y159.412 E4.2566
G1 X148.857 Y159.515 E4.2724
G1 X148.811 Y159.524 E4.2741
G1 X148.066 Y159.642 E4.3012
G1 X148.020 Y159.647 E4.3029
G1 X147.582 Y159.682 E4.3187
G1 X147.535 Y159.684 E4.3204
G1 X62.854 Y159.700 E7.3622
G1 X62.823 Y159.699 E7.3633
G1 X62.529 Y159.684 E7.3739
G1 X62.498 Y159.681 E7.3750
G1 X61.436 Y159.570 E7.4133
G1 X61.374 Y159.560 E7.4156
G1 X60.800 Y159.438 E7.4367
G1 X60.739 Y159.422 E7.4389
G1 X59.655 Y159.069 E7.4799
G1 X59.610 Y159.053 E7.4816
G1 X59.204 Y158.885 E7.4974
G1 X59.161 Y158.865 E7.4991
G1 X58.489 Y158.522 E7.5262
G1 X58.448 Y158.499 E7.5279
G1 X58.073 Y158.269 E7.5437
G1 X58.034 Y158.243 E7.5454
G1 X57.111 Y157.573 E7.5864
G1 X57.062 Y157.533 E7.5886
G1 X56.626 Y157.141 E7.6097
G1 X56.581 Y157.096 E7.6120
G1 X55.769 Y156.194 E7.6556
G1 X55.730 Y156.145 E7.6578
G1 X55.385 Y155.670 E7.6789
G1 X55.350 Y155.617 E7.6812
G1 X54.743 Y154.566 E7.7248
G1 X54.715 Y154.510 E7.7270
G1 X54.476 Y153.974 E7.7481
G1 X54.453 Y153.915 E7.7504
G1 X54.101 Y152.830 E7.7913
G1 X54.088 Y152.785 E7.7930
G1 X53.985 Y152.357 E7.8088
G1 X53.976 Y152.311 E7.8105
G1 X53.859 Y151.571 E7.8374
G1 X53.854 Y151.526 E7.8391
G1 X53.819 Y151.098 E7.8545
G1 X53.817 Y151.052 E7.8562
G1 X53.799 Y146.372 E8.0243
G1 X53.800 Y146.339 E8.0254
G1 X53.816 Y146.036 E8.0364
G1 X53.818 Y146.003 E8.0375
G1 X53.923 Y145.009 E8.0734
G1 X53.929 Y144.963 E8.0751
G1 X54.009 Y144.530 E8.0909
G1 X54.020 Y144.484 E8.0926
G1 X54.196 Y143.827 E8.1171
G1 X54.205 Y143.796 E8.1182
G1 X54.296 Y143.518 E8.1287
G1 X54.306 Y143.488 E8.1299
G1 X54.550 Y142.853 E8.1543
G1 X54.569 Y142.809 E8.1560
G1 X54.758 Y142.412 E8.1718
G1 X54.780 Y142.370 E8.1735
G1 X55.350 Y141.382 E8.2145
G1 X55.385 Y141.330 E8.2167
G1 X55.729 Y140.855 E8.2378
G1 X55.769 Y140.806 E8.2401
G1 X56.581 Y139.904 E8.2837
G1 X56.626 Y139.859 E8.2859
G1 X57.062 Y139.467 E8.3070
G1 X57.111 Y139.427 E8.3093
G1 X58.034 Y138.757 E8.3503
G1 X58.073 Y138.730 E8.3520
G1 X58.448 Y138.501 E8.3678
G1 X58.489 Y138.477 E8.3695
G1 X59.161 Y138.135 E8.3965
G1 X59.204 Y138.115 E8.3982
G1 X59.396 Y138.555 F4800
G92 E0
G1 X59.785 Y138.394 E0.0151 F1800
G1 X59.812 Y138.384 E0.0161
G1 X60.809 Y138.060 E0.0538
G1 X60.836 Y138.053 E0.0548
G1 X61.246 Y137.954 E0.0699
G1 X61.274 Y137.949 E0.0710
G1 X61.999 Y137.834 E0.0974
G1 X62.027 Y137.831 E0.0984
G1 X62.447 Y137.798 E0.1135
G1 X62.475 Y137.796 E0.1145
G1 X147.069 Y137.780 E3.1532
G1 X147.079 Y137.780 E3.1535
G1 X147.220 Y137.784 E3.1586
G1 X147.229 Y137.784 E3.1589
G1 X147.823 Y137.815 E3.1803
G1 X147.851 Y137.818 E3.1813
G1 X148.269 Y137.873 E3.1965
G1 X148.297 Y137.878 E3.1975
G1 X149.391 Y138.110 E3.2377
G1 X149.427 Y138.120 E3.2390
G1 X149.962 Y138.294 E3.2592
G1 X149.997 Y138.307 E3.2605
G1 X151.083 Y138.791 E3.3033
G1 X151.117 Y138.808 E3.3046
G1 X151.603 Y139.089 E3.3248
G1 X151.635 Y139.109 E3.3262
G1 X152.540 Y139.767 E3.3663
G1 X152.562 Y139.784 E3.3674
G1 X152.883 Y140.058 E3.3825
G1 X152.903 Y140.077 E3.3835
G1 X153.423 Y140.597 E3.4099
G1 X153.442 Y140.618 E3.4109
G1 X153.716 Y140.938 E3.4261
G1 X153.733 Y140.960 E3.4271
G1 X154.349 Y141.808 E3.4647
G1 X154.365 Y141.832 E3.4657
G1 X154.585 Y142.191 E3.4809
G1 X154.599 Y142.216 E3.4819
G1 X154.933 Y142.871 E3.5083
G1 X154.945 Y142.896 E3.5093
G1 X155.106 Y143.285 E3.5244
G1 X155.116 Y143.312 E3.5255
G1 X155.461 Y144.376 E3.5656
G1 X155.471 Y144.412 E3.5670
G1 X155.588 Y144.962 E3.5872
G1 X155.594 Y144.999 E3.5885
G1 X155.703 Y146.042 E3.6262
G1 X155.705 Y146.060 E3.6269
G1 X155.720 Y146.341 E3.6369
G1 X155.720 Y146.360 E3.6376
G1 X155.720 Y150.640 E3.7914
G1 X155.720 Y150.659 E3.7921
G1 X155.705 Y150.940 E3.8022
G1 X155.703 Y150.958 E3.8028
G1 X155.594 Y152.001 E3.8405
G1 X155.588 Y152.038 E3.8418
G1 X155.471 Y152.588 E3.8620
G1 X155.461 Y152.624 E3.8634
G1 X155.116 Y153.688 E3.9036
G1 X155.106 Y153.715 E3.9046
G1 X154.945 Y154.104 E3.9197
G1 X154.933 Y154.129 E3.9207
G1 X154.599 Y154.784 E3.9471
G1 X154.585 Y154.809 E3.9481
G1 X154.365 Y155.168 E3.9633
G1 X154.349 Y155.192 E3.9643
G1 X153.692 Y156.097 E4.0045
G1 X153.668 Y156.126 E4.0058
G1 X153.292 Y156.544 E4.0260
G1 X153.266 Y156.570 E4.0274
G1 X152.382 Y157.366 E4.0701
G1 X152.353 Y157.389 E4.0714
G1 X151.898 Y157.720 E4.0916
G1 X151.867 Y157.740 E4.0930
G1 X150.837 Y158.335 E4.1357
G1 X150.803 Y158.352 E4.1370
G1 X150.290 Y158.580 E4.1572
G1 X150.255 Y158.594 E4.1586
G1 X149.191 Y158.940 E4.1987
G1 X149.164 Y158.947 E4.1998
G1 X148.754 Y159.046 E4.2149
G1 X148.726 Y159.051 E4.2159
G1 X148.001 Y159.166 E4.2423
G1 X147.973 Y159.169 E4.2433
G1 X147.553 Y159.202 E4.2584
G1 X147.525 Y159.204 E4.2594
G1 X62.860 Y159.220 E7.3007
G1 X62.842 Y159.220 E7.3013
G1 X62.561 Y159.205 E7.3115
G1 X62.542 Y159.203 E7.3121
G1 X61.499 Y159.094 E7.3498
G1 X61.462 Y159.088 E7.3512
G1 X60.912 Y158.971 E7.3713
G1 X60.876 Y158.961 E7.3727
G1 X59.812 Y158.616 E7.4129
G1 X59.785 Y158.606 E7.4139
G1 X59.396 Y158.445 E7.4290
G1 X59.371 Y158.433 E7.4300
G1 X58.716 Y158.099 E7.4564
G1 X58.691 Y158.085 E7.4575
G1 X58.332 Y157.865 E7.4726
G1 X58.308 Y157.849 E7.4736
G1 X57.403 Y157.192 E7.5138
G1 X57.374 Y157.168 E7.5151
G1 X56.956 Y156.792 E7.5353
G1 X56.930 Y156.766 E7.5367
G1 X56.134 Y155.882 E7.5794
G1 X56.110 Y155.853 E7.5807
G1 X55.780 Y155.398 E7.6009
G1 X55.760 Y155.367 E7.6023
G1 X55.165 Y154.337 E7.6450
G1 X55.148 Y154.303 E7.6463
G1 X54.920 Y153.790 E7.6665
G1 X54.906 Y153.755 E7.6679
G1 X54.560 Y152.691 E7.7080
G1 X54.553 Y152.664 E7.7091
G1 X54.454 Y152.254 E7.7242
G1 X54.449 Y152.226 E7.7252
G1 X54.335 Y151.505 E7.7514
G1 X54.331 Y151.478 E7.7524
G1 X54.298 Y151.068 E7.7672
G1 X54.297 Y151.041 E7.7682
G1 X54.279 Y146.376 E7.9357
G1 X54.280 Y146.357 E7.9364
G1 X54.295 Y146.066 E7.9469
G1 X54.296 Y146.047 E7.9476
G1 X54.399 Y145.069 E7.9829
G1 X54.403 Y145.041 E7.9839
G1 X54.480 Y144.627 E7.9991
G1 X54.486 Y144.599 E8.0001
G1 X54.658 Y143.957 E8.0240
G1 X54.663 Y143.939 E8.0246
G1 X54.750 Y143.672 E8.0347
G1 X54.756 Y143.654 E8.0354
G1 X54.995 Y143.033 E8.0593
G1 X55.006 Y143.007 E8.0603
G1 X55.187 Y142.627 E8.0754
G1 X55.200 Y142.602 E8.0764
G1 X55.760 Y141.633 E8.1166
G1 X55.780 Y141.602 E8.1180
G1 X56.110 Y141.147 E8.1382
G1 X56.134 Y141.118 E8.1395
G1 X56.930 Y140.234 E8.1822
G1 X56.956 Y140.208 E8.1836
G1 X57.374 Y139.832 E8.2038
G1 X57.403 Y139.808 E8.2051
G1 X58.308 Y139.150 E8.2453
G1 X58.332 Y139.135 E8.2463
G1 X58.691 Y138.915 E8.2614
G1 X58.716 Y138.901 E8.2625
G1 X59.371 Y138.567 E8.2889
G1 X59.396 Y138.555 E8.2899
G1 X59.589 Y138.995 F4800
G92 E0
G1 X59.960 Y138.841 E0.0145 F1800
G1 X59.969 Y138.838 E0.0148
G1 X60.948 Y138.520 E0.0518
G1 X60.957 Y138.517 E0.0521
G1 X61.349 Y138.423 E0.0666
G1 X61.358 Y138.422 E0.0669
G1 X62.065 Y138.310 E0.0926
G1 X62.075 Y138.308 E0.0930
G1 X62.475 Y138.277 E0.1074
G1 X62.484 Y138.276 E0.1077
G1 X147.066 Y138.260 E3.1460
G1 X147.069 Y138.260 E3.1461
G1 X147.204 Y138.264 E3.1509
G1 X147.207 Y138.264 E3.1510
G1 X147.789 Y138.294 E3.1720
G1 X147.798 Y138.295 E3.1723
G1 X148.197 Y138.348 E3.1868
G1 X148.206 Y138.349 E3.1871
G1 X149.279 Y138.577 E3.2265
G1 X149.291 Y138.580 E3.2269
G1 X149.801 Y138.746 E3.2462
G1 X149.813 Y138.751 E3.2467
G1 X150.876 Y139.224 E3.2885
G1 X150.887 Y139.230 E3.2889
G1 X151.352 Y139.498 E3.3082
G1 X151.363 Y139.505 E3.3087
G1 X152.250 Y140.150 E3.3481
G1 X152.258 Y140.155 E3.3484
G1 X152.564 Y140.417 E3.3628
G1 X152.571 Y140.423 E3.3632
G1 X153.077 Y140.930 E3.3889
G1 X153.083 Y140.937 E3.3893
G1 X153.345 Y141.242 E3.4037
G1 X153.350 Y141.250 E3.4040
G1 X153.956 Y142.083 E3.4410
G1 X153.961 Y142.091 E3.4414
G1 X154.171 Y142.434 E3.4558
G1 X154.176 Y142.442 E3.4561
G1 X154.501 Y143.080 E3.4819
G1 X154.505 Y143.089 E3.4822
G1 X154.659 Y143.460 E3.4967
G1 X154.662 Y143.469 E3.4970
G1 X155.001 Y144.512 E3.5364
G1 X155.004 Y144.524 E3.5369
G1 X155.116 Y145.049 E3.5561
G1 X155.118 Y145.062 E3.5566
G1 X155.225 Y146.086 E3.5936
G1 X155.226 Y146.092 E3.5938
G1 X155.240 Y146.360 E3.6034
G1 X155.240 Y146.366 E3.6037
G1 X155.240 Y150.634 E3.7570
G1 X155.240 Y150.640 E3.7572
G1 X155.226 Y150.908 E3.7668
G1 X155.225 Y150.914 E3.7671
G1 X155.118 Y151.938 E3.8040
G1 X155.116 Y151.951 E3.8045
G1 X155.004 Y152.476 E3.8238
G1 X155.001 Y152.488 E3.8242
